X:1
T:Title
%%score { ( 1 3 ) | 2 }
L:1/8
M:4/4
K:G
V:1 treble nm="Grand Piano"
V:3 treble 
V:2 bass 
V:1
 z4 z2[Q:1/4=92] [B,D][B,G] | [DB]2 [DB]>[DB] [DB]2 [CA][B,G] | B2 z2 z4 | d2 cB d2 cB | A6 DG | %5
 B2 [DB]>[DB] [DB]2 [CA][B,G] | B2 z2 z4 | d2 z2 z4 | [B,G]6 Bc | d2 d>d d2 ed | z G B>B B2 cB | %11
 A2 A>B [Fc]2 [Fd]>c | B6 [B,D][B,G] | [DB]2 [DB]>[DB] [DB]2 [CA][B,G] | B2 z2 z4 | d2 z2 z4 | %16
[M:3/4] [B,G]6 |] %17
V:2
 z4 z2 [G,,G,][G,,G,] | [G,,G,]2 [G,,G,]>[G,,G,] [G,,G,]2 [G,,G,][G,,G,] | %2
 [G,,G,]2 [G,,G,]>[G,,G,] [G,,G,]2 [G,,G,][K:treble][G,A,D] | %3
 [G,B,G]2 [G,A,D][G,D] [G,B,G]2[K:bass] [F,A,D][G,D] | [D,F,D]6 [G,B,][G,B,] | %5
 [G,D]2 [G,,G,]>[G,,G,] [G,,G,]2 [G,,G,][G,,G,] | %6
 [G,,G,]2 [G,,G,]>[G,,G,] [G,,G,]2 [A,,F,][A,,F,] | %7
 [B,,G,]2 [C,G,][C,G,] [D,G,D]2 [D,F,C]>[D,F,C] | [G,,G,]6[K:treble] [G,D][G,A,D] | %9
 [G,B,G]2 [G,B,G]>[G,B,G] [G,B,G]2 [G,CG][G,B,G] | %10
 .[G,D]2 [G,F]>[K:bass][G,E] [G,D]2 [F,A,D][G,D] | %11
 [D,F,D]2 [D,F,D]>[D,G,D] [D,A,]2 [D,A,]>[D,A,D] | [G,D]6 [G,,G,][G,,G,] | %13
 [G,,G,]2 [G,,G,]>[G,,G,] [G,,G,]2 [G,,G,][G,,G,] | %14
 [G,,G,]2 [G,,G,]>[G,,G,] [G,,G,]2 [A,,F,][A,,F,] | %15
 [B,,G,]2 [C,G,][C,G,] [D,G,D]2 [D,F,C]>[D,F,C] |[M:3/4] [G,,G,]6 |] %17
V:3
 x8 | x8 | DG [FB]>[EB] [DB]2 [DB]c | x8 | x8 | x8 | DG [FB]>[EB] [DB]2 [Dc][Dc] | %7
 D=F[Ed][Ec] B2 A>A | x8 | x8 | B2 z2 z4 | x8 | x8 | x8 | DG [FB]>[EB] [DB]2 [Dc][Dc] | %15
 D=F[Ed][Ec] B2 A>A |[M:3/4] x6 |] %17

